!!!!SEGMENT: pl-kk--kk-i-386--001-002_anonim--missa-prima-kyrie.krn
!!!cenid: 18xx:4500
!!!COM: Anonim
!!!COM-rismID: pe30004985
!!!CDT:
!!!CNT:
!!!OPR: [Missa prima]
!!!OTL: Kyrie
!!!OMV: 002
!!!PDT:
!!!AGN: Sacred
!!!YEC: Copyright 2022 Narodowy Instytut Fryderyka Chopina (https://polishscores.org)
!!!YEM: License CC-BY-4.0 (https://creativecommons.org/licenses/by/4.0)
!!!SMS-siglum: PL-Kk
!!!SMS-shelfmark: Kk.I.386
!!!SMS-variant:
!!!SMS-altvar:
!!!SMS-shelfwork: 001-002 M
!!!NIFC-rismSourceID: 1001218240
!!!NIFC-rismChildID: 1001218242
!!!NIFC-islandoraID: pl-kk:16060
!!!URL-pdf-islandora: https://repozytorium.nifc.pl/islandora/object/pl-kk%3A16060/datastream/PDF/view
!!!URL-scan: https://polish.musicsources.pl/pl/lokalizacje/galeria/rekopisy/7134/3 @EN{Scan on Polish Music Sources Website} @PL{Skany w portalu Dziedzictwo Muzyki Polskiej w otwartym dostępie}
!!!IIIF:
!!!ONB-nifc: UWAGA: Części Missy Prima: Rorate, Kyrie, Gloria, Graduale, Offertorium, Sanctus, Benedicuts, Agnus, Dona. Zakres skanów: S – 3-6, A – 12-15, T – 22-25, B – 32-25
!!!AIN: 1 alto 1 bass 1 soprn 1 tenor
!!!key:
**kern	**text	**kern	**text	**kern	**text	**kern	**text
*part4	*part4	*part3	*part3	*part2	*part2	*part1	*part1
*staff4	*staff4	*staff3	*staff3	*staff2	*staff2	*staff1	*staff1
*I"Basso.	*	*I"Tenore.	*	*I"Alto.	*	*I"Soprano.	*
*I'B	*	*I'T	*	*I'A	*	*I'S	*
*Ibass	*	*Itenor	*	*Ialto	*	*Isoprn	*
*ICvox	*	*ICvox	*	*ICvox	*	*ICvox	*
*clefF4	*	*clefC4	*	*clefC3	*	*clefC1	*
*k[]	*	*k[]	*	*k[]	*	*k[]	*
*C:	*	*C:	*	*C:	*	*C:	*
*M3/4	*	*M3/4	*	*M3/4	*	*M3/4	*
=1	=1	=1	=1	=1	=1	=1	=1
!LO:TX:a:t=in C.	!	!LO:TX:a:t=in C.	!	!	!	!	!
2C/	Ky-	4G/	Ky-	4e\	Ky-	4g\	Ky-
.	.	4c\	.	4g\	.	4ee\	.
4E\	-ri-	4c\	-ri-	4g\	-ri-	4cc\	-ri-
=2	=2	=2	=2	=2	=2	=2	=2
*2\right	*	*2\right	*	*2\right	*	*	*
2F\	-e	2c\	-e	2f\	-e	4b\	-e
*	*	*	*	*	*	*2\right	*
.	.	.	.	.	.	2a\	e-
4E\	e-	4c#X\	e-	4g\	e-	.	.
=3	=3	=3	=3	=3	=3	=3	=3
2D\	-lei-	4d\	-le-	4f\	-le-	4.a\	-le-
.	.	4f\	-i-	4f\	-i-	.	.
.	.	.	.	.	.	8dd\	-i-
8F\	-son	8d\	-son	8a\	-son	8ff\	-son
8F\	e-	8f\	e-	8a\	e-	8dd\	e-
=4	=4	=4	=4	=4	=4	=4	=4
4G\	-lei-	4e\	-lei-	4g\	-lei-	4cc\	-lei-
4GG/	-son	4d\	-son	4g\	-son,	4b\	-son,
4r	.	4r	.	4r	.	4r	.
=5	=5	=5	=5	=5	=5	=5	=5
4G\	Chry-	2B\	chri-	4g\	Chri-	4dd\	Chri-
4G#X\	-ste	.	.	4g\	-ste	4ee\	-ste
4G#\	e-	4B\	-ste	4g\	e-	4dd\	e-
=6	=6	=6	=6	=6	=6	=6	=6
2A\	-lei-	2A\	e-	2e\	-le-	(4.cc\	-le-
.	.	.	.	.	.	8cc#X\	.
4F#X\	-son	4A\	-lei-	4d\	-i-	8dd\L)	.
.	.	.	.	.	.	8ccn\J	-i-
!LO:LB:g=original	!	!LO:LB:g=original	!	!LO:LB:g=original	!	!LO:LB:g=original	!
=7	=7	=7	=7	=7	=7	=7	=7
(2G\	e-	4B\	-son	2d\	-son	8b\L	-son
.	.	.	.	.	.	8cc\	.
.	.	(4B\	e-	.	.	8dd\	.
.	.	.	.	.	.	8dd#X\J	.
!	!	!	!	!	!	!LO:TX:t=P:problem:mixed beam	!
4D/)	.	4c\)	.	4d\	e-	8ee\L	e-
.	.	.	.	.	.	8f#X/J	.
=8	=8	=8	=8	=8	=8	=8	=8
4GG/	-lei-	4B\	-lei-	4d\	-lei-	4a\	-lei-
4GG/	-son,	4B\	-son	4d\	-son,	4g\	-son,
4r	.	4r	.	4r	.	4r	.
=9	=9	=9	=9	=9	=9	=9	=9
2C/	Ky-	4G/	Ky-	4e\	Ky-	4g\	Ky-
.	.	4c\	.	4g\	.	4ee\	.
4E\	-ri-	4c\	-ri-	4g\	-ri-	4cc\	-ri-
=10	=10	=10	=10	=10	=10	=10	=10
2F\	-e	4c\	-e	2f\	-e	4b\	-e
.	.	4c\	e-	.	.	2a\	e-
4E\	e-	4c#X\	.	4g\	e	.	.
=11	=11	=11	=11	=11	=11	=11	=11
2D\	-lei-	2d\	-lei-	2f\	lei-	4.a\	-le-
.	.	.	.	.	.	8dd\	-i-
8F\	-son	8d\L	-son	8a\	-son	8ff\	-son
8F\	e-	8f\J	e-	8a\	e-	8dd\	e-
=12	=12	=12	=12	=12	=12	=12	=12
4G\	-lei-	4e\	-lei-	4g\	-lei-	4cc\	-lei-
4GG/	-son	4d\	-son	4g\	-son	4b\	-son
4r	.	4r	.	4r	.	4r	.
!	!	!LO:LB:g=original	!	!	!	!	!
=13	=13	=13	=13	=13	=13	=13	=13
4F\	e-	4B\	chri-	4g\	chri-	4dd\	Chri-
4E\	.	4c\	-ste	4g\	-ste	4ee\	-ste
4D\	.	4B\	e-	4g\	e-	4ff\	e-
!LO:LB:g=original	!	!	!	!LO:LB:g=original	!	!LO:LB:g=original	!
=14	=14	=14	=14	=14	=14	=14	=14
2C/	-lei-	4.e\	-le-	2g\	-lei-	4.gg\	-le-
.	.	8c\	-i-	.	.	8ee\	-i-
8F\	-son	8.d\L	-son	8a\	-son	8ff\	-son
8F\	e-	.	.	8a\	e-	8dd\	e-
.	.	16f\Jk	e-	.	.	.	.
=15	=15	=15	=15	=15	=15	=15	=15
2G\	-le-	4e\	-le-	2g\	-le-	4cc\	-le-
.	.	4c\	.	.	.	4ee\	.
4GG/	-i-	4d\	-i-	4f\	-i-	4b\	-i-
=16	=16	=16	=16	=16	=16	=16	=16
2C/	-son	2G/	-son,	2e\	-son,	2cc\	-son,
4r	.	4r	.	4r	.	4r	.
=17	=17	=17	=17	=17	=17	=17	=17
2G\	Chri-	2B\	chri-	2g\	Chri-	2dd\	chri-
4G\	-ste	4B\	-ste	4g\	-ste	4dd\	-ste
=18	=18	=18	=18	=18	=18	=18	=18
4E\	chri-	4B\	Chri-	4g#X\	chri-	2ee\	chri-
4E\	-ste	4B\	-ste	4g#\	-ste	.	.
4E\	chri-	4B\	chri-	4g#\	Chri-	8ee\	-ste
.	.	.	.	.	.	8ee\	chri-
!	!	!LO:LB:g=original	!	!	!	!	!
=19	=19	=19	=19	=19	=19	=19	=19
2A\	-ste	2A\	-ste	2e\	-ste	2cc\	-ste
4D\	e-	8A\	e-	4f#X\	e-	4dd\	e-
.	.	8A\	.	.	.	.	.
=20	=20	=20	=20	=20	=20	=20	=20
4G\	-lei-	8A/L	-le-	8f#X\L	-le-	8cc\L	-le-
.	.	8G/J	-i-	8gn\J	-i-	8b\J	-i-
4G\	-son	4G/	-son	4g\	-son,	4b\	-son
4r	.	4r	.	4r	.	4r	.
!LO:LB:g=original	!	!	!	!LO:LB:g=original	!	!LO:LB:g=original	!
=21	=21	=21	=21	=21	=21	=21	=21
2G\	chri-	4G/	chri-	4g\	Chri-	4b\	chri-
.	.	4A/	.	4f#X\	.	4cc\	.
4GG/	.	4B\	.	4fn\	.	4dd\	.
=22	=22	=22	=22	=22	=22	=22	=22
4C/	-ste	4c\	-ste	(4e\	-ste	4ee\	-ste
4D/	.	4B\	.	2g\)	.	4dd\	.
4E-X/	e-	4A#X\	.	.	.	4cc#X\	.
=23	=23	=23	=23	=23	=23	=23	=23
4D/	-lei-	4B\	chri-	4g\	chri-	4dd\	chri-
4D/	-son	4An\	-ste	4f#X\	-ste	4ccn\	.
4D/	e-	4c\	e-	4d\	e-	8f#X/	-ste
.	.	.	.	.	.	8f#/	e-
=24	=24	=24	=24	=24	=24	=24	=24
4G\	-lei-	8c\L	-le-	4d\	-lei-	8a\L	-le-
.	.	8B\J	-i-	.	.	8g\J	-i-
4GG/	-son,	4B\	-son	4d\	-son,	4g\	-son,
4r	.	4r	.	4r	.	4r	.
!	!	!LO:LB:g=original	!	!	!	!	!
=25	=25	=25	=25	=25	=25	=25	=25
2C/	Ky-	4G/	Ky-	4e\	Ky-	4g\	Ky-
.	.	4c\	.	4g\	.	4ee\	.
4E\	-ri-	4c\	-ri-	4g\	-ri-	4cc\	-ri-
=26	=26	=26	=26	=26	=26	=26	=26
2F\	-e	2c\	-e	2fn\	-e	4b\	-e
.	.	.	.	.	.	2a\	e-
4E\	e-	4c#X\	e-	4g\	e-	.	.
!	!	!	!	!	!	!LO:LB:g=original	!
=27	=27	=27	=27	=27	=27	=27	=27
2D\	-lei-	4d\	-le-	4f\	-lei-	4.a\	-le-
.	.	4f\	-i-	4f\	-son	.	.
.	.	.	.	.	.	8dd\	-i-
8F\	-son	8d\	-son	4a\	e-	8ff\	-son
8F\	e-	8f\	e-	.	.	8dd\	e-
!LO:LB:g=original	!	!	!	!LO:LB:g=original	!	!	!
=28	=28	=28	=28	=28	=28	=28	=28
4G\	-lei-	4e\	-lei-	4g\	-lei-	4cc\	-lei-
4GG/	-son	4d\	-son	4g\	-son	4b\	-son
4r	.	4r	.	4r	.	4r	.
=29	=29	=29	=29	=29	=29	=29	=29
4F\	e-	4B\	Ky-	2g\	Ky-	4dd\	Ky-
4E\	-le-	4cn\	.	.	.	4ee\	.
4D\	-i-	4B\	-ri-	4g\	-ri-	4ff\	-ri-
=30	=30	=30	=30	=30	=30	=30	=30
2C/	-son	4.e\	-e	2g\	-e	4.gg\	-e
.	.	8c\	.	.	.	8ee\	.
4F\	e-	8d\L	e-	4a\	e-	8ff\L	.
.	.	8f\J	.	.	.	8dd\J	e-
!	!	!LO:LB:g=original	!	!	!	!	!
=31	=31	=31	=31	=31	=31	=31	=31
4G\	-le-	4e\	-le-	2g\	-le-	4cc\	-le-
4GG/	.	4c\	.	.	.	4ee\	.
4GG#X/	-i-	4B\	-i-	4f\	-i-	4dd\	-i-
=32	=32	=32	=32	=32	=32	=32	=32
2.AA;/	-son	2.A;\	-son	2.e;\	-son,	2.cc;\	-son.
!	!	!	!	!	!	!LO:LB:g=original	!
=33||	=33||	=33||	=33||	=33||	=33||	=33||	=33||
4GG/	Ky-	2B-X\	Ky-	2e\	Ky-	2cc\	Ky-
4G\	.	.	.	.	.	.	.
4G\	-ri-	4B-\	-ri-	4e\	-ri-	4cc\	-ri-
=34	=34	=34	=34	=34	=34	=34	=34
2F\	-e	4.A\	-e	2f\	-e	8cc\L	-e
.	.	.	.	.	.	8cc#X\	.
.	.	.	.	.	.	8dd\	.
.	.	8c#X\	.	.	.	8ee\J	.
4F\	e-	8d\L	e-	4a\	e-	8ff\L	.
.	.	8f\J	.	.	.	8dd\J	e-
=35	=35	=35	=35	=35	=35	=35	=35
2G\	-le-	2cn\	.	2e\	-le-	2gg\	-le-
4GG/	-i-	4d\	-e-	4g\	-i-	4b\	-i-
=36	=36	=36	=36	=36	=36	=36	=36
2.C/	-son.	4G/	-lei-	2e\	-son.	2cc\	-son.
.	.	4G/	-son.	.	.	.	.
.	.	4r	.	4r	.	4r	.
==	==	==	==	==	==	==	==
*-	*-	*-	*-	*-	*-	*-	*-
!!!system-decoration: [(s1,s2,s3,s4)]
!!!ENC: Filip Voros
!!!END: 2023-11-02
!!!ENC: Leszek Kubiak
!!!END: 2024-06-23
